packages/icons/src/service-github-package.svg

<svg fill="none" viewBox="0 0 32 32" xmlns="http://www.w3.org/2000/svg"><path clip-rule="evenodd" d="m0 16.3945c0-8.83597 7.16533-15.999969 16-15.999969 8.836 0 16 7.163999 16 15.999969 0 7.0667-4.5787 13.0627-10.932 15.1814-.812.1573-1.068-.3427-1.068-.768v-4.3907c0-1.4933-.524-2.4667-1.0973-2.9627 3.5626-.396 7.3053-1.7493 7.3053-7.8946 0-1.7467-.62-3.1747-1.6467-4.2947.1654-.4027.7134-2.03067-.1573-4.23467 0 0-1.3413-.42933-4.396 1.64-1.2787-.35467-2.648-.532-4.008-.53867-1.36.00667-2.728.184-4.004.53867-3.05733-2.06933-4.40133-1.64-4.40133-1.64-.86934 2.20267-.32134 3.83067-.156 4.23467-1.02267 1.12-1.648 2.5467-1.648 4.2947 0 6.1293 3.736 7.5013 7.28933 7.908-.4587.3986-.8733 1.1053-1.016 2.1386-.9133.4094-3.22933 1.116-4.656-1.3293 0 0-.84533-1.5373-2.452-1.6493 0 0-1.56267-.0214-.11067.972 0 0 1.04934.492 1.77734 2.3413 0 0 .92666 2.856 5.37733 1.888v2.9787c0 .4213-.2587.9173-1.0573.7693-6.3587-2.116-10.9427-8.1133-10.9427-15.1827zm15.7657-3.8052c.1572-.0925.3523-.092.5091.0013l2.6306 1.565-2.922 1.7176-2.8888-1.7132zm.7166 4.1506 2.9053-1.7078v3.0514c0 .178-.0946.3426-.2485.4321l-2.6568 1.5458zm-1-.0012v3.3188l-2.6241-1.5403c-.1529-.0897-.2469-.2538-.2469-.4312v-3.05zm1.3038-5.0075c-.4703-.2798-1.0556-.2813-1.5273-.0039l-3.4009 1.9999c-.1528.0898-.2466.2538-.2466.431v3.9278c0 .5321.2819 1.0243.7407 1.2936l3.3772 1.9824c.1557.0914.3485.0917.5045.001l3.4083-1.983c.4616-.2686.7456-.7624.7456-1.2965v-3.9253c0-.1763-.0928-.3396-.2443-.4297z" fill="#000" fill-rule="evenodd"/></svg>

<svg xmlns="http://www.w3.org/2000/svg"  viewBox="0 0 32 32" fill="none">
<g>
<path fill-rule="evenodd" clip-rule="evenodd" d="M0 16.3945C0 7.55853 7.16533 0.394531 16 0.394531C24.836 0.394531 32 7.55853 32 16.3945C32 23.4612 27.4213 29.4572 21.068 31.5759C20.256 31.7332 20 31.2332 20 30.8079V26.4172C20 24.9239 19.476 23.9505 18.9027 23.4545C22.4653 23.0585 26.208 21.7052 26.208 15.5599C26.208 13.8132 25.588 12.3852 24.5613 11.2652C24.7267 10.8625 25.2747 9.23453 24.404 7.03053C24.404 7.03053 23.0627 6.6012 20.008 8.67053C18.7293 8.31586 17.36 8.13853 16 8.13186C14.64 8.13853 13.272 8.31586 11.996 8.67053C8.93867 6.6012 7.59467 7.03053 7.59467 7.03053C6.72533 9.2332 7.27333 10.8612 7.43867 11.2652C6.416 12.3852 5.79067 13.8119 5.79067 15.5599C5.79067 21.6892 9.52667 23.0612 13.08 23.4679C12.6213 23.8665 12.2067 24.5732 12.064 25.6065C11.1507 26.0159 8.83467 26.7225 7.408 24.2772C7.408 24.2772 6.56267 22.7399 4.956 22.6279C4.956 22.6279 3.39333 22.6065 4.84533 23.5999C4.84533 23.5999 5.89467 24.0919 6.62267 25.9412C6.62267 25.9412 7.54933 28.7972 12 27.8292V30.8079C12 31.2292 11.7413 31.7252 10.9427 31.5772C4.584 29.4612 0 23.4639 0 16.3945ZM15.7657 12.5893C15.9229 12.4968 16.118 12.4973 16.2748 12.5906L18.9054 14.1556L15.9834 15.8732L13.0946 14.16L15.7657 12.5893ZM16.4823 16.7399L19.3876 15.0321V18.0835C19.3876 18.2615 19.293 18.4261 19.1391 18.5156L16.4823 20.0614V16.7399ZM15.4823 16.7387V20.0575L12.8582 18.5172C12.7053 18.4275 12.6113 18.2634 12.6113 18.086V15.036L15.4823 16.7387ZM16.7861 11.7312C16.3158 11.4514 15.7305 11.4499 15.2588 11.7273L11.8579 13.7272C11.7051 13.817 11.6113 13.981 11.6113 14.1582V18.086C11.6113 18.6181 11.8932 19.1103 12.352 19.3796L15.7292 21.362C15.8849 21.4534 16.0777 21.4537 16.2337 21.363L19.642 19.38C20.1036 19.1114 20.3876 18.6176 20.3876 18.0835V14.1582C20.3876 13.9819 20.2948 13.8186 20.1433 13.7285L16.7861 11.7312Z" fill="black"/>
</g>
</svg>
